X:8268
T:Jota (Payares - L.lena)
C:Trad.
M:3/8
L:1/8
Q:1/8=192
K:C
|CCC|CDE|FFE|
|DFE|D2 C|CD/C/ B,-|B,2 z|
|DFE|DFE|DE/D/ C-|C2 z|
|:D3/2D/D|DCB,|CD/C/ B,-|B,2 z|
|DFE|DFE|DE/D/ C-|C2 z:|


